.local/share/icons/Gruvbox-Plus-Dark/panel/24/pcloud-pause.svg

<svg xmlns="http://www.w3.org/2000/svg" width="24" height="24" version="1.1">
 <defs>
  <style id="current-color-scheme" type="text/css">
   .ColorScheme-Text { color:#ebdbb2; } .ColorScheme-Highlight { color:#458588; }
  </style>
 </defs>
 <path style="opacity:0.3;fill:currentColor" class="ColorScheme-Text" d="M 12.5,5.0002371 A 6.5,6.5 0 0 0 6.4902344,9.0314871 5,5 0 0 0 2,14.000237 a 5,5 0 0 0 5,5 h 6.423828 A 5,5 0 0 1 13,17.000237 5,5 0 0 1 13.113281,15.953362 4.5,4.5 0 0 1 12.5,16.000237 4.5,4.5 0 0 1 8,11.500237 4.5,4.5 0 0 1 12.5,7.0002371 4.5,4.5 0 0 1 17,11.500237 4.5,4.5 0 0 1 16.951172,12.117425 5,5 0 0 1 18,12.000237 5,5 0 0 1 20.490234,12.670159 3,3 0 0 0 21,11.000237 3,3 0 0 0 18,8.0002371 a 3,3 0 0 0 -0.02344,0 6.5,6.5 0 0 0 -5.476562,-3 z m 0,3 A 3.5,3.5 0 0 0 9,11.500237 a 3.5,3.5 0 0 0 3.5,3.5 3.5,3.5 0 0 0 0.990234,-0.144531 5,5 0 0 1 2.365235,-2.365235 A 3.5,3.5 0 0 0 16,11.500237 3.5,3.5 0 0 0 12.5,8.0002371 Z m -1.5,1 h 1 1.5 a 1.5,1.5 0 0 1 1.5,1.4999999 1.5,1.5 0 0 1 -1.5,1.5 H 12 v 2 h -1 v -2 z m 1,0.9999999 v 1 h 1.5 a 0.5,0.5 0 0 0 0.5,-0.5 0.5,0.5 0 0 0 -0.5,-0.5 z"/>
 <path style="fill:currentColor" class="ColorScheme-Text" d="M 18.279297,13.008049 C 17.510764,12.953728 16.717412,13.121168 16,13.535393 c -1.9132,1.1046 -2.567391,3.551644 -1.462891,5.464844 1.1045,1.9131 3.549791,2.567491 5.462891,1.462891 1.9132,-1.1046 2.569344,-3.549691 1.464844,-5.462891 -0.690313,-1.195688 -1.904658,-1.901651 -3.185547,-1.992188 z M 16,15.000237 h 1 v 4 h -1 z m 3,0 h 1 v 4 h -1 z"/>
</svg>

<svg width="24" height="24" version="1.1" xmlns="http://www.w3.org/2000/svg">
  <defs>
    <style id="current-color-scheme" type="text/css">.ColorScheme-Text { color:#ebdbb2; } .ColorScheme-Highlight { color:#458588; } .ColorScheme-NeutralText { color:#fe8019; } .ColorScheme-PositiveText { color:#689d6a; } .ColorScheme-NegativeText { color:#fb4934; }</style>
  </defs>
  <path class="ColorScheme-Text" d="m12.5 5a6.5 6.5 0 0 0-6.01 4.031 5 5 0 0 0-4.49 4.969 5 5 0 0 0 5 5h6.424a5 5 0 0 1-0.4238-2 5 5 0 0 1 0.1133-1.047 4.5 4.5 0 0 1-0.6133 0.04688 4.5 4.5 0 0 1-4.5-4.5 4.5 4.5 0 0 1 4.5-4.5 4.5 4.5 0 0 1 4.5 4.5 4.5 4.5 0 0 1-0.04883 0.6172 5 5 0 0 1 1.049-0.1172 5 5 0 0 1 2.49 0.6699 3 3 0 0 0 0.5098-1.67 3 3 0 0 0-3-3 3 3 0 0 0-0.02344 0 6.5 6.5 0 0 0-5.477-3zm0 3a3.5 3.5 0 0 0-3.5 3.5 3.5 3.5 0 0 0 3.5 3.5 3.5 3.5 0 0 0 0.9902-0.1445 5 5 0 0 1 2.365-2.365 3.5 3.5 0 0 0 0.1445-0.9902 3.5 3.5 0 0 0-3.5-3.5zm-1.5 1h2.5a1.5 1.5 0 0 1 1.5 1.5 1.5 1.5 0 0 1-1.5 1.5h-1.5v2h-1v-2zm1 1v1h1.5a0.5 0.5 0 0 0 0.5-0.5 0.5 0.5 0 0 0-0.5-0.5z" fill="currentColor" opacity=".3"/>
  <path class="ColorScheme-Text" d="m18.28 13.01c-0.7685-0.05432-1.562 0.1131-2.279 0.5273-1.913 1.105-2.567 3.552-1.463 5.465 1.104 1.913 3.55 2.567 5.463 1.463 1.913-1.105 2.569-3.55 1.465-5.463-0.6903-1.196-1.905-1.902-3.186-1.992zm-2.279 1.992h1v4h-1zm3 0h1v4h-1z" fill="currentColor"/>
</svg>
